X:1
T:Title
%%score 1 { 2 | 3 }
L:1/8
Q:1/4=90
M:4/4
K:A
V:1 treble nm="Grand Piano, Soprano"
V:2 bass nm="Grand Piano, Bass"
V:3 bass 
V:1
 z4 z2 [CA][DB] | [Ec]2 [CE]>[CE] [CE][B,D][A,C][B,D] | [CE]2 [EA]>[EA] [EA]2 [CA][EG] | %3
w: 1.~I~ will~|sing,~ hal le lu jah,~ for~ there's~|joy~ in~ the~ Lord,~ And~ He~|
 [DF][Fd][DF][DA] [CE][CA][EG][^DA] | [EB]2 [EB]>[Ec] [EB]2 [EA][EB] | %5
w: fills~ my~ heart~ with~ rap ture~ as~ I~|rest~ on~ His~ Word;~ I~ will~|
 [Ec]2 [CE]>[CE] [CE][B,D][A,C][B,D] | [CE]2 [EA]>[EA] [EA]2 [CA][EG] | %7
w: trust~ in~ His~ prom ise;~ I~ will~|shout,~ I~ am~ free;~ In~ my~|
 [DF][Fd][DF][DA] [CE][CA][Ec][FB] | [EA]2 [EG]>[EG] [EA]2[Q:1/4=90] [EA][EA][Q:1/4=12] | %9
w: bless ed,~ lov ing~ Sav ior,~ I~ have~|sweet~ vic to ry.~ * *|
 [EB]2 E>E E2 [Ed][Ed] | [Ec]2 [EA]>[EA] [EA]2 [CA][EG] | [DF][Fd][DF][DA] [CE][EA][EG][^DA] | %12
w: |||
 [EB]2 [EB]>[Ec] [EB]2 [Ec][Ed] | [Ae]2 [EA]>[EA] [EA]2 [DB][Ec] | [Fd]2 [DF]>[DF] [DF]2 [EG][DF] | %15
w: |||
 [CE][CA][EA][EB] [Ec][Ee][Q:1/4=90][Ec][EA][Q:1/4=12] | %16
w: |
 [Ec]2 [DB]>[DB] [CA]2[Q:1/4=90] z2[Q:1/4=12] |] %17
w: |
V:2
 z4 z2 E,E, | A,2 A,>A, A,E,E,E, | A,2[K:treble] C>C C2 A,A, | A,A,A,A, A,A,B,B, | %4
 G,2 G,>A, G,2 A,G, | A,2 A,>A, A,E,E,E, | A,2[K:treble] C>C C2 A,A, | A,A,A,A, A,A,A,[K:treble]D | %8
 C2 B,>B, C2 CC | D2[K:bass] G,>G, G,2 B,B, | A,2[K:treble] C>C C2 A,A, | A,A,A,A, A,A,B,B, | %12
 G,2 G,>A, G,2 A,B, | C2 C>C C2 A,[K:bass]A, | A,2 A,>A, A,2 A,A, | A,A,A,G, A,CA,A, | %16
 A,2 G,>G, A,2 z2 |] %17
V:3
 z4 z2 A,,A,, | A,,2 A,,>A,, A,,A,,A,,A,, | A,,2 A,,>A,, A,,2 A,,C, | D,D,D,F, z2 E,F, | %4
 E,2 E,>E, E,D,C,B,, | A,,2 A,,>A,, A,,A,,A,,A,, | A,,2 A,,>A,, A,,2 A,,C, | D,D,D,F, z2 C,D, | %8
 E,2 E,>E, A,,2 A,,A,, | E,2 E,>E, E,2 G,G, | z2 A,,>A,, A,,2 A,,C, | D,D,D,F, z2 E,E, | %12
 E,2 E,>E, E,D,C,B,, | A,,2 A,,>A,, A,,2 A,,A,, | D,2 D,>D, D,2 D,D, | A,,A,,C,E, z A, z C, | %16
 E,2 E,>E, A,,2 z2 |] %17

